app/assets/images/remix_icon/user/star-smile-line.svg

<svg viewBox="0 0 24 24" xmlns="http://www.w3.org/2000/svg"><path d="M11.9986 0.5L16.2246 6.68342L23.4113 8.7918L18.8364 14.7217L19.052 22.2082L11.9986 19.6897L4.94519 22.2082L5.16082 14.7217L0.585938 8.7918L7.77262 6.68342L11.9986 0.5ZM11.9986 4.044L9.02089 8.40151L3.95562 9.887L7.18055 14.0655L7.02762 19.34L11.9986 17.566L16.9686 19.34L16.8167 14.0655L20.0406 9.887L14.9763 8.40151L11.9986 4.044ZM9.99862 12C9.99862 13.1046 10.894 14 11.9986 14C13.1032 14 13.9986 13.1046 13.9986 12H15.9986C15.9986 14.2091 14.2078 16 11.9986 16C9.78948 16 7.99862 14.2091 7.99862 12H9.99862Z"/></svg>

<svg xmlns="http://www.w3.org/2000/svg" viewBox="0 0 24 24">
    <g>
        <path fill="none" d="M0 0h24v24H0z"/>
        <path fill-rule="nonzero" d="M12 .5l4.226 6.183 7.187 2.109-4.575 5.93.215 7.486L12 19.69l-7.053 2.518.215-7.486-4.575-5.93 7.187-2.109L12 .5zm0 3.544L9.022 8.402 3.957 9.887l3.225 4.178-.153 5.275L12 17.566l4.97 1.774-.152-5.275 3.224-4.178-5.064-1.485L12 4.044zM10 12a2 2 0 1 0 4 0h2a4 4 0 1 1-8 0h2z"/>
    </g>
</svg>
